img/instagram.svg

<svg width="48" height="48" viewBox="0 0 48 48" fill="none" xmlns="http://www.w3.org/2000/svg">
<g clip-path="url(#clip0_478_960)">
<path d="M12.1715 47.8302C9.31697 47.7004 7.76628 47.2254 6.73487 46.8231C5.36821 46.291 4.39385 45.6576 3.36815 44.6333C2.34244 43.609 1.70761 42.6347 1.17835 41.268C0.776057 40.2366 0.301008 38.6859 0.171189 35.8313C0.0285315 32.7456 0 31.8198 0 24.0021C0 16.1845 0.0313847 15.2601 0.169763 12.1715C0.299581 9.31697 0.777484 7.76913 1.17693 6.73487C1.70904 5.36821 2.34386 4.39385 3.36672 3.36672C4.391 2.34244 5.36535 1.70618 6.73344 1.17693C7.76485 0.774631 9.31554 0.299581 12.1701 0.169763C15.2572 0.0285315 16.1845 0 23.9993 0C31.8169 0 32.7413 0.0313847 35.8299 0.169763C38.6845 0.299581 40.2323 0.777484 41.2666 1.17693C42.6332 1.70618 43.6076 2.34244 44.6333 3.36672C45.659 4.391 46.291 5.36678 46.8231 6.73344C47.2254 7.76485 47.7004 9.31554 47.8302 12.1701C47.9715 15.2587 48 16.1831 48 24.0007C48 31.8155 47.9715 32.7428 47.8302 35.8313C47.7004 38.6859 47.2225 40.2366 46.8231 41.268C46.291 42.6347 45.6576 43.609 44.6333 44.6333C43.609 45.6576 42.6332 46.291 41.2666 46.8231C40.2351 47.2254 38.6845 47.7004 35.8299 47.8302C32.7442 47.9715 31.8169 48 23.9993 48C16.1845 48 15.2572 47.9729 12.1715 47.8302Z" fill="url(#paint0_radial_478_960)"/>
<path d="M19.3345 24C19.3345 21.4228 21.4232 19.333 24.0006 19.333C26.5779 19.333 28.6678 21.4228 28.6678 24C28.6678 26.5772 26.5779 28.667 24.0006 28.667C21.4232 28.667 19.3345 26.5772 19.3345 24ZM16.8114 24C16.8114 27.9704 20.03 31.1888 24.0006 31.1888C27.9711 31.1888 31.1897 27.9704 31.1897 24C31.1897 20.0296 27.9711 16.8112 24.0006 16.8112C20.03 16.8112 16.8116 20.0294 16.8116 24M29.7943 16.5261C29.7942 16.8584 29.8926 17.1833 30.0771 17.4596C30.2616 17.7359 30.5239 17.9514 30.8308 18.0787C31.1378 18.2059 31.4756 18.2393 31.8015 18.1746C32.1274 18.11 32.4269 17.9501 32.6619 17.7152C32.897 17.4804 33.0571 17.1811 33.122 16.8552C33.187 16.5293 33.1539 16.1915 33.0268 15.8845C32.8998 15.5775 32.6846 15.315 32.4083 15.1303C32.1321 14.9456 31.8074 14.8469 31.4751 14.8468H31.4744C31.029 14.847 30.6019 15.024 30.2869 15.3389C29.9719 15.6537 29.7947 16.0807 29.7943 16.5261ZM18.3443 35.3958C16.9793 35.3336 16.2374 35.1063 15.7444 34.9142C15.0907 34.6597 14.6243 34.3566 14.134 33.867C13.6436 33.3773 13.3401 32.9114 13.0867 32.2578C12.8945 31.765 12.6672 31.0228 12.6051 29.6579C12.5372 28.1822 12.5237 27.7389 12.5237 24.0002C12.5237 20.2616 12.5384 19.8195 12.6051 18.3425C12.6673 16.9776 12.8963 16.2369 13.0867 15.7427C13.3412 15.0891 13.6443 14.6227 14.134 14.1324C14.6237 13.642 15.0896 13.3385 15.7444 13.0852C16.2372 12.893 16.9793 12.6656 18.3443 12.6036C19.8201 12.5357 20.2634 12.5221 24.0006 12.5221C27.7377 12.5221 28.1815 12.5366 29.6585 12.6038C31.0235 12.6659 31.7642 12.895 32.2584 13.0854C32.9121 13.3387 33.3785 13.6429 33.8688 14.1326C34.3592 14.6222 34.6616 15.0893 34.9161 15.7429C35.1083 16.2357 35.3356 16.9778 35.3977 18.3428C35.4656 19.8197 35.4791 20.2618 35.4791 24.0004C35.4791 27.7391 35.4656 28.1812 35.3977 29.6581C35.3355 31.0231 35.107 31.765 34.9161 32.258C34.6616 32.9116 34.3585 33.378 33.8688 33.8672C33.3791 34.3564 32.9121 34.6599 32.2584 34.9144C31.7656 35.1066 31.0235 35.334 29.6585 35.396C28.1827 35.4639 27.7394 35.4774 24.0006 35.4774C20.2617 35.4774 19.8197 35.4639 18.3443 35.396M18.2284 10.0848C16.738 10.1527 15.7195 10.389 14.8301 10.7351C13.9095 11.0924 13.1292 11.5719 12.35 12.3499C11.5708 13.1278 11.0925 13.9082 10.7351 14.8299C10.389 15.7198 10.1527 16.7377 10.0848 18.2281C10.0158 19.7208 10 20.198 10 24C10 27.802 10.0158 28.2792 10.0848 29.7719C10.1527 31.2624 10.389 32.2802 10.7351 33.1701C11.0925 34.0906 11.5709 34.8725 12.35 35.6501C13.1291 36.4277 13.9084 36.9065 14.8301 37.2649C15.7212 37.611 16.738 37.8473 18.2284 37.9152C19.722 37.9831 20.1985 38 24.0006 38C27.8027 38 28.2799 37.9842 29.7727 37.9152C31.2633 37.8473 32.2811 37.611 33.171 37.2649C34.0916 36.9065 34.8719 36.4281 35.6512 35.6501C36.4304 34.8722 36.9076 34.0906 37.266 33.1701C37.6121 32.2802 37.8496 31.2623 37.9163 29.7719C37.9842 28.2781 38 27.802 38 24C38 20.198 37.9842 19.7208 37.9163 18.2281C37.8485 16.7376 37.6121 15.7193 37.266 14.8299C36.9076 13.9094 36.4291 13.1291 35.6512 12.3499C34.8732 11.5707 34.0916 11.0924 33.1722 10.7351C32.2811 10.389 31.2632 10.1515 29.7738 10.0848C28.2808 10.0166 27.8038 10 24.0022 10C20.2007 10 19.7226 10.0158 18.229 10.0848" fill="white"/>
</g>
<defs>
<radialGradient id="paint0_radial_478_960" cx="0" cy="0" r="1" gradientUnits="userSpaceOnUse" gradientTransform="translate(3.10651 46.9485) scale(60.9422)">
<stop offset="0.09" stop-color="#FA8F21"/>
<stop offset="0.78" stop-color="#D82D7E"/>
</radialGradient>
<clipPath id="clip0_478_960">
<path d="M0 24C0 10.7452 10.7452 0 24 0C37.2548 0 48 10.7452 48 24C48 37.2548 37.2548 48 24 48C10.7452 48 0 37.2548 0 24Z" fill="white"/>
</clipPath>
</defs>
</svg>

<svg xmlns="http://www.w3.org/2000/svg" width="48" height="48" fill="none"><g clip-path="url(#a)"><path fill="url(#b)" d="M12.171 47.83c-2.854-.13-4.405-.605-5.436-1.007-1.367-.532-2.341-1.165-3.367-2.19-1.026-1.024-1.66-1.998-2.19-3.365-.402-1.031-.877-2.582-1.007-5.437C.03 32.746 0 31.82 0 24.002c0-7.817.031-8.742.17-11.83.13-2.855.607-4.403 1.007-5.437.532-1.367 1.167-2.341 2.19-3.368 1.024-1.025 1.998-1.66 3.366-2.19C7.765.775 9.316.3 12.17.17 15.257.029 16.184 0 24 0c7.817 0 8.741.031 11.83.17 2.855.13 4.402.607 5.437 1.007 1.366.53 2.34 1.165 3.366 2.19 1.026 1.024 1.658 2 2.19 3.366.402 1.032.877 2.583 1.007 5.437.142 3.089.17 4.013.17 11.83 0 7.816-.029 8.743-.17 11.831-.13 2.855-.608 4.406-1.007 5.437-.532 1.367-1.165 2.341-2.19 3.365-1.024 1.025-2 1.658-3.366 2.19-1.032.402-2.583.877-5.437 1.007-3.086.142-4.013.17-11.83.17-7.816 0-8.743-.027-11.829-.17Z"/><path fill="#fff" d="M19.334 24a4.667 4.667 0 1 1 9.334-.001 4.667 4.667 0 0 1-9.334.001Zm-2.523 0a7.189 7.189 0 1 0 14.378 0 7.189 7.189 0 0 0-14.377 0m12.982-7.474a1.68 1.68 0 1 0 1.681-1.68 1.68 1.68 0 0 0-1.68 1.68Zm-11.45 18.87c-1.365-.062-2.107-.29-2.6-.482a4.352 4.352 0 0 1-1.61-1.047 4.32 4.32 0 0 1-1.047-1.61c-.192-.492-.42-1.234-.482-2.6-.068-1.475-.081-1.918-.081-5.657 0-3.738.014-4.18.081-5.657.062-1.365.291-2.106.482-2.6a4.351 4.351 0 0 1 1.047-1.61c.49-.491.956-.794 1.61-1.048.493-.192 1.235-.42 2.6-.481 1.476-.068 1.92-.082 5.657-.082s4.18.015 5.657.082c1.365.062 2.106.291 2.6.481.654.254 1.12.558 1.61 1.048.491.49.794.956 1.048 1.61.192.493.42 1.235.482 2.6.068 1.477.081 1.919.081 5.657 0 3.74-.013 4.181-.081 5.658-.063 1.365-.291 2.107-.482 2.6a4.338 4.338 0 0 1-1.047 1.61c-.49.488-.957.792-1.61 1.046-.493.193-1.236.42-2.6.482-1.476.068-1.92.081-5.658.081-3.74 0-4.181-.013-5.657-.081m-.116-25.311c-1.49.068-2.509.304-3.398.65a6.87 6.87 0 0 0-2.48 1.615 6.835 6.835 0 0 0-1.615 2.48c-.346.89-.582 1.908-.65 3.398C10.015 19.721 10 20.198 10 24c0 3.802.016 4.28.085 5.772.068 1.49.304 2.508.65 3.398.357.92.836 1.703 1.615 2.48a6.879 6.879 0 0 0 2.48 1.615c.891.346 1.908.582 3.398.65 1.494.068 1.97.085 5.773.085 3.802 0 4.279-.016 5.772-.085 1.49-.068 2.508-.304 3.398-.65.92-.358 1.7-.837 2.48-1.615a6.858 6.858 0 0 0 1.615-2.48c.346-.89.584-1.908.65-3.398.068-1.494.084-1.97.084-5.772 0-3.802-.016-4.28-.084-5.772-.067-1.49-.304-2.509-.65-3.398a6.886 6.886 0 0 0-1.615-2.48 6.85 6.85 0 0 0-2.479-1.615c-.89-.346-1.909-.583-3.398-.65-1.493-.068-1.97-.085-5.772-.085-3.801 0-4.28.016-5.773.085"/></g><defs><radialGradient id="b" cx="0" cy="0" r="1" gradientTransform="translate(3.107 46.949) scale(60.9422)" gradientUnits="userSpaceOnUse"><stop offset=".09" stop-color="#FA8F21"/><stop offset=".78" stop-color="#D82D7E"/></radialGradient><clipPath id="a"><path fill="#fff" d="M0 24C0 10.745 10.745 0 24 0s24 10.745 24 24-10.745 24-24 24S0 37.255 0 24Z"/></clipPath></defs></svg>
